X:1
T:Down by the Salley Gardens
T:Down by the Salley Gardens
T:Irish Traditional
T:arr. aczutro
T: 
T:Text: Willian Butler Yeats Music: Herbert Hughes 
C:arr. CutiePie
%%score 1 2
L:1/8
Q:1/4=80
M:4/4
K:D
V:1 treble nm="Irish Flute"
V:2 treble nm="Irish Flute"
V:1
 (DE) |{/G} F2 (ED){/F} E2 (FA) |{/c} (B4 A2) (dA) |{/c} B2 (AF) PE3 D | D4 z2 (DE) | %5
w: Down _|by the _ Sal- ley _|Gar- dens my _|love and _ I did|meet. She _|
{/G} F2 (ED){/F} E2 (FA) |{/c} (B4 A2) (dA) |{/c} B2 (AF) PE3 D | D4 z2 A2 | d2 (cA) B2 d2 | %10
w: crossed the _ Sal- ley _|Gar- dens with _|lit- tle _ snow- white|feet. She|bid me _ take love|
{/d} (c3 B){/c} A2 (FA | B2) AF (AB)(de) | d4 z2 (DE) |{/G} F2 (ED){/F} E2 (FA) | %14
w: ea- sy, _ as the|leaves grow up on _ the _|tree. But _|I was _ young and _|
{/c} (B4 A2) (dA) | B2 (AF) PE3 D | D4 z2 :| %17
w: fool- ish and with|her did _ not a-|gree.|
V:2
 z2 | D4 A4 | G4 D2 D2 | G3 A G3 D | A4 z4 | D4 A4 | G4 d2 d2 | G3 A G3 D | D4 z4 | D8 | F4 A4 | %11
 B4 A2 d2 | D4 z4 | D4 A4 | G4 d2 d2 | G3 A G3 D | D4 z2 :| %17

